!!!OTL: DER JAEGERSMANN TRAT INS HUETTCHEN SEIN
!!!ARE: Europa, Mitteleuropa, Deutschland
!!!SCT: F0621
!!!YEM: Copyright 1995, estate of Helmut Schaffrath.
**kern
*ICvox
*Ivox
*M6/8
*k[f#]
*e:
{8b
=1
4b
8gn
8.b
16a
8gn
=2
4f#
8f#
4gn}
{8b
=3
4ee
8b
4gn
8e
=4
2b
8r}
{8b
=5
4b
8gn
8.b
16a
8gn
=6
4f#
8f#
4gn}
{8b
=7
4ee
8b
4gn
8e
=8
2b
8r}
{8b
=9
8.f#
16f#
8f#
8.gn
16gn
8a
=10
8b
8a
8gn
4f#}
{8b
=11
8.f#
16f#
8f#
8.gn
16gn
8a
=12
8b
8a
8gn
4f#}
{8gn
=13
4gn
8b
4b
8ee
=14
[4.ee
4ee]}
{8a#
=15
8b
8ee
8b
8a
8gn
8f#
=16
4.b
8ee
8r}
{8a#
=17
8b
8ee
8b
8a
8gn
8f#
=18
[4.e
8e]
8r}
==
!!!AGN: Staende -, Jaeger - Lied, Unglueck, Tod
!!!ONB: ESAC (Essen Associative Code) Database: FINK
!!!AMT: compound duple
!!!AIN: vox
!!!EED: Helmut Schaffrath
!!!EEV: 1.0
*-
